src/icons/gemfile.svg

<svg preserveAspectRatio="xMidYMid" version="1.1" viewBox="0 0 500 500" xmlns="http://www.w3.org/2000/svg"><g transform="matrix(.9141 0 0 .9141 21.476 21.476)" style="fill:#e53935"><path d="m162.78 164.72-.278-.277-61.667 61.667 149.72 149.44 61.668-61.388 88.055-88.056-61.668-61.667v-.278h-176.11z" style="fill:#e53935"/><path d="m250 0-218.06 125v250l218.06 125 218.06-125v-250zm176.39 351.11-176.39 101.67-176.39-101.67v-202.78l176.39-101.67 176.39 101.67z" style="fill:#e53935"/></g></svg>

<svg preserveAspectRatio="xMidYMid" viewBox="0 0 500 500" xmlns="http://www.w3.org/2000/svg"><g style="fill:#e53935"><path d="m162.78 164.72-.278-.277-61.667 61.667 149.72 149.44 61.668-61.388 88.055-88.056-61.668-61.667v-.278H162.5z" style="fill:#e53935" transform="translate(21.476 21.476) scale(.9141)"/><path d="M250 0 31.94 125v250L250 500l218.06-125V125zm176.39 351.11L250 452.78 73.61 351.11V148.33L250 46.66l176.39 101.67z" style="fill:#e53935" transform="translate(21.476 21.476) scale(.9141)"/></g></svg>
